modules/hawcons-stroke/icons/icon-27-shuttlecock.svg

<?xml version="1.0" encoding="UTF-8" standalone="no"?>
<svg width="32px" height="32px" viewBox="0 0 32 32" version="1.1" xmlns="http://www.w3.org/2000/svg" xmlns:xlink="http://www.w3.org/1999/xlink" xmlns:sketch="http://www.bohemiancoding.com/sketch/ns">
    <!-- Generator: Sketch 3.0.3 (7891) - http://www.bohemiancoding.com/sketch -->
    <title>icon 27 shuttlecock</title>
    <desc>Created with Sketch.</desc>
    <defs></defs>
    <g id="Page-1" stroke="none" stroke-width="1" fill="none" fill-rule="evenodd" sketch:type="MSPage">
        <g id="icon-27-shuttlecock" sketch:type="MSArtboardGroup" fill="#929292">
            <path d="M13.0428551,27.1650422 L16.5,29.7506714 L19.9516375,27.118229 L19.9516375,27.118229 L18.0553752,11 L14.9446248,11 L13.0428551,27.1650422 L13.0428551,27.1650422 Z M12.0524123,27.025185 L9.05950928,29.664978 L7.08959961,27.6669922 L11,11 L13.9377282,11 L12.0524123,27.025185 L12.0524123,27.025185 Z M20.9552181,27.0900432 L23.9605103,29.664978 L25.8915405,27.6669922 L22,11 L19.0622718,11 L20.9552181,27.0900432 L20.9552181,27.0900432 L20.9552181,27.0900432 Z M23,11 L23,8.5 C23,4.91014913 20.0898509,2 16.5,2 C12.9101491,2 10,4.91014913 10,8.5 L10,11 L6,28 L9,31 L12.5,28 L16.5,31 L20.5,28 L24,31 L27,28 L23,11 L23,11 L23,11 Z M11,10 L22,10 L22,8.5 C22,5.46243388 19.5375661,3 16.5,3 C13.4624339,3 11,5.46243388 11,8.5 L11,10 L11,10 Z" id="shuttlecock" sketch:type="MSShapeGroup"></path>
        </g>
    </g>
</svg>

<svg width="32" height="32" viewBox="0 0 32 32" xmlns="http://www.w3.org/2000/svg"><path d="M13.043 27.165l3.457 2.586 3.452-2.633L18.055 11h-3.11l-1.902 16.165zm-.99-.14l-2.993 2.64-1.97-1.998L11 11h2.938l-1.886 16.025zm8.902.065l3.006 2.575 1.93-1.998L22 11h-2.938l1.893 16.09zM23 11V8.5a6.5 6.5 0 1 0-13 0V11L6 28l3 3 3.5-3 4 3 4-3 3.5 3 3-3-4-17zm-12-1h11V8.5a5.5 5.5 0 0 0-11 0V10z" fill="#929292" fill-rule="evenodd"/></svg>
